public/assets/images/seven.svg

<svg width="25" height="40" viewBox="0 0 25 40" fill="none" xmlns="http://www.w3.org/2000/svg">
<path d="M7.82 39H7.52C6.84 39 6.42 38.9 6.26 38.7C6.14 38.5 6.24 38.08 6.56 37.44L19.64 10.38C20.52 8.66 20.96 7.08 20.96 5.64C20.96 4.76 20.64 4.12 20 3.72C19.36 3.32 18.28 3.12 16.76 3.12H2.12C1.56 3.12 1.18 3.02 0.98 2.82C0.78 2.62 0.68 2.24 0.68 1.68V1.44C0.68 0.879997 0.78 0.499997 0.98 0.299998C1.18 0.0999978 1.56 -2.14577e-06 2.12 -2.14577e-06H16.88C21.84 -2.14577e-06 24.32 1.84 24.32 5.52C24.32 7.28 23.24 10.42 21.08 14.94L10.22 37.5C9.94 38.1 9.64 38.5 9.32 38.7C9 38.9 8.5 39 7.82 39ZM19.0559 36.78C18.9359 35.7 19.3359 34.94 20.2559 34.5C21.1759 34.06 22.0959 34.06 23.0159 34.5C23.9359 34.94 24.3359 35.7 24.2159 36.78C24.2159 37.5 23.9559 38.12 23.4359 38.64C22.9559 39.12 22.3559 39.36 21.6359 39.36C20.9159 39.36 20.2959 39.12 19.7759 38.64C19.2959 38.12 19.0559 37.5 19.0559 36.78Z" fill="url(#paint0_radial_646_4899)"/>
<defs>
<radialGradient id="paint0_radial_646_4899" cx="0" cy="0" r="1" gradientUnits="userSpaceOnUse" gradientTransform="translate(36.5484 47.0908) rotate(-130.663) scale(44.0936 41.2975)">
<stop stop-color="#C6B38A"/>
<stop offset="0.463601" stop-color="#F3C691"/>
<stop offset="1" stop-color="#B4703E"/>
</radialGradient>
</defs>
</svg>

<svg xmlns="http://www.w3.org/2000/svg" width="25" height="40" fill="none" xmlns:v="https://vecta.io/nano"><path d="M7.82 39h-.3c-.68 0-1.1-.1-1.26-.3-.12-.2-.02-.62.3-1.26l13.08-27.06c.88-1.72 1.32-3.3 1.32-4.74 0-.88-.32-1.52-.96-1.92s-1.72-.6-3.24-.6H2.12c-.56 0-.94-.1-1.14-.3s-.3-.58-.3-1.14v-.24C.68.88.78.5.98.3S1.56 0 2.12 0h14.76c4.96 0 7.44 1.84 7.44 5.52 0 1.76-1.08 4.9-3.24 9.42L10.22 37.5c-.28.6-.58 1-.9 1.2s-.82.3-1.5.3zm11.236-2.22c-.12-1.08.28-1.84 1.2-2.28s1.84-.44 2.76 0 1.32 1.2 1.2 2.28c0 .72-.26 1.34-.78 1.86-.48.48-1.08.72-1.8.72s-1.34-.24-1.86-.72c-.48-.52-.72-1.14-.72-1.86z" fill="url(#A)"/><defs><radialGradient id="A" cx="0" cy="0" r="1" gradientUnits="userSpaceOnUse" gradientTransform="translate(36.5484 47.0908) rotate(-130.663) scale(44.0936 41.2975)"><stop stop-color="#c6b38a"/><stop offset=".464" stop-color="#f3c691"/><stop offset="1" stop-color="#b4703e"/></radialGradient></defs></svg>
